X:195
T:Qui ne face rotruenge  nouvele
T:Les miracles de Notre-Dame
C:Gautier de Coincy (1177-1236)
M:3/4
L:1/8
Q:1/4=240
%beats in anacrusis = 0
K:F 
V:1
D2G4 | F2G2A2 | c6 | B2A4 | 
G6 | ABc2B2 | B2A2G2 | F4-F3/2z/2 | 
z6 | B6 | A2B4 | A2G4 | 
A6 | G2G2F2 | GAB2A2 | A2G2F2 | 
G4-G3/2z/2 | z6 | D2G4 | F2G2A2 | 
c6 | B2A4 | G6 | ABc4 | 
B2A2G2 | F4-F3/2z/2 | z6 | B6 | 
A2B4 | A2G4 | A6 | G2G2F2 | 
GAB4 | A2G2F2 | G4-G3/2z/2 | z6 | 
B6 | c6 | d6 | B2A4 | 
B6 | d2c4 | B2A4 | A6 | 
G4-G3/2z/2 | z6 | A2B4 | c6 | 
B2A4 | A6 | B6 | A6 | 
B4c2 | B2A2G2 | A4-A3/2z/2 | z6 | 
A6 | B2c4 | d6 | c6 | 
B2A4 | G6 | F2E2D2 | E2F2E2 | 
D4-D3/2z/2 | z6 | F6 | G2A4 | 
B6 | c6 | B6 | A2G4 | 
ABc4 | B2A2G2 | F6- | F2z4 | 
F6 | G2A4 | B6 | c6 | 
A6 | BAG2F2 | G6 | A2B2A2 |
A6 | G6 |]





